!!!COM: Mozart, Wolfgang Amadeus
!!!CDT: 1756/01/27/-1791/12/05/
!!!CNT: German
!!!OTL: Piano Sonata No. 5 in G major
!!!SCT1: K<sup>1</sup> 283
!!!SCT2: K<sup>6</sup> 189h
!!!OMV: Mvmt. 1
!!!OMD: Allegro
!!!ODT: 1774///
**kern	**kern	**dynam
*staff2	*staff1	*staff1/2
*>[A,A,B]	*>[A,A,B]	*>[A,A,B]
*>norep[A,B]	*>norep[A,B]	*>norep[A,B]
*>A	*>A	*>A
*clefF4	*clefG2	*clefG2
*k[f#]	*k[f#]	*k[f#]
*G:	*G:	*G:
*M3/4	*M3/4	*M3/4
*MM120	*MM120	*MM120
4r	(8.ddL	p
.	16bJk	.
=1	=1	=1
(8GL	4dd)	.
8B	.	.
8d	4r	.
8B	.	.
8d	(4g	.
8BJ	.	.
=2	=2	=2
8AL	4f#)	.
8c	.	.
8d	4r	.
8c	.	.
8d	(8.aaL	.
8cJ	.	.
.	16ff#Jk	.
=3	=3	=3
8F#L	4aa)	.
8A	.	.
8d	4r	.
8A	.	.
8d	(4cc	.
8AJ	.	.
=4	=4	=4
8GL	4b)	.
8B	.	.
8d	4r	.
8BJ	.	.
4G)	(8.ggL	.
.	16ff#Jk)	.
*clefG2	*	*
=5	=5	=5
2c 2g	(8ff#L	fp
.	8eeJ)	.
.	4ee	.
4r	(8.ggL	.
.	16eeJk)	.
=6	=6	=6
2B 2g	(8eeL	fp
.	8ddJ)	.
.	4dd	.
4r	(8.ggL	f
.	16ddJk)	.
*clefF4	*	*
=7	=7	=7
4A (4c	4dd'	.
4G 4B	4dd'	.
4F# 4A)	4dd'	.
=8	=8	=8
4G 4B	(16ddLL	.
.	16ee	.
.	16ff#	.
.	16ggJJ	.
4r	16aaLL	.
.	16bb	.
.	16ccc	.
.	16dddJJ	.
4E 4G	16cccLL	.
.	16bb	.
.	16aa	.
.	16ggJJ	.
=9	=9	=9
*^	*	*
4r	4ryy	16ff#LL	.
.	.	16ee	.
.	.	16dd	.
.	.	16ccJJ	.
(4G	2D	16bLL	.
.	.	16dd	.
.	.	16b	.
.	.	16gJJ	.
4c)	.	16aLL	.
.	.	16cc	.
.	.	16a	.
.	.	16f#JJ	.
=10	=10	=10	=10
4B	4G	4g)	.
4GG	2ryy	4r	.
4r	.	(8.gL	p
.	.	16f#Jk)	.
*v	*v	*	*
=11	=11	=11
2C 2G	(8f#L	fp
.	8eJ)	.
.	4e	.
4r	(8.gL	.
.	16eJk)	.
=12	=12	=12
2BB 2G	(8eL	fp
.	8dJ)	.
.	4d	.
4r	(8.ggL	f
.	16ddJk)	.
=13	=13	=13
4A (4c	4dd'	.
4G 4B	4dd'	.
4F# 4A)	4dd'	.
=14	=14	=14
!	!LO:S:a	!
4G 4B	(16ddLL	.
.	16ee	.
.	16ff#	.
.	16ggJJ	.
4r	16aaLL	.
.	16bb	.
.	16ccc	.
.	16dddJJ	.
4E 4G	16cccLL	.
.	16bb	.
.	16aa	.
.	16ggJJ	.
=15	=15	=15
*^	*	*
4r	4ryy	16ff#LL	.
.	.	16ee	.
.	.	16dd	.
.	.	16ccJJ	.
(4G	2D	16bLL	.
.	.	16dd	.
.	.	16b	.
.	.	16gJJ	.
4c)	.	16aLL	.
.	.	16cc	.
.	.	16a	.
.	.	16f#JJ	.
=16	=16	=16	=16
4B	4G	4g)	.
2ryy	8r	8r	.
.	8GGG/ 8GGL/	(16GLL	p
.	.	16BJJ	.
.	8AAA/ 8AA/	16ALL	.
.	.	16c	.
.	8BBB/ 8BB/J	16B	.
.	.	16dJJ	.
*v	*v	*	*
=17	=17	=17
4CC 4C	4c)	.
8r	8r	.
8AAA 8AAL	(16ALL	.
.	16cJJ	.
8BBB 8BB	16BLL	.
.	16d	.
8CC 8CJ	16c	.
.	16eJJ	.
=18	=18	=18
4DD 4D	4d)	.
8r	8r	.
!	!LO:S:a	!
8BBB 8BBL	(16BLL	.
.	16dJJ	.
8CC 8C	16cLL	.
.	16e	.
8DD 8DJ	16d	.
.	16fnJJ	.
=19	=19	=19
8EE 8EL	16eLL	.
.	16fn	.
8DD 8D	16d	.
.	16eJJ	.
8CC 8C	16cLL	.
.	16e	.
8DD 8D	16d	.
.	16fJJ	.
8EE 8E	16eLL	.
.	16g	.
8FF# 8F#J	16f#	.
.	16aJJ	.
=20	=20	=20
8GG 8GL	16gLL	.
.	16a	.
8FF# 8F#	16f#	.
.	16gJJ	.
8EE 8E	16eLL	.
.	16g	.
8FF# 8F#	16f#	.
.	16aJJ	.
8GG 8G	16gLL	.
.	16b	.
8AA 8AJ	16a	.
.	16ccJJ	.
=21	=21	=21
8BB 8BL	16bLL	.
.	16cc	.
8AA 8A	16a	.
.	16bJJ	.
8GG 8G	16gLL\	.
.	16b\	.
8AA 8A	16a\	.
.	16ccJJ\	.
8BB 8B	16bLL	.
.	16dd	.
8C# 8c#J	16cc#	.
.	16eeJJ	.
=22	=22	=22
4D 4d	4dd)	.
4DD 4D	4dT	.
.	16c#qLL	.
.	16dqJJ	.
4r	4r	.
*clefG2	*	*
=23	=23	=23
(8f#L	8r	.
8a	(4aa	p
8e	.	.
8a	4gg	.
8d	.	.
8aJ	[8ff#	.
=24	=24	=24
8c#L	8ff#]	.
8a	4ee	.
8B	.	.
8a	4dd	.
8A	.	.
8aJ	8cc#)	.
=25	=25	=25
8BL	(16eeLK	.
.	8.ddJ)	.
8a	.	.
8c#	(16ff#LK	.
.	8.eeJ)	.
8a	.	.
8d	(16ggLK	.
.	8.ff#J)	.
8aJ	.	.
=26	=26	=26
8eL	(8.aaL	.
8a	.	.
.	16ggJk)	.
8c#	4ee	.
8a	.	.
8A	4r	.
8aJ)	.	.
=27	=27	=27
(16f#LL	8r	.
16a	.	.
16f#	(16aaLL	.
16aJJ	16bbJJ	.
16eLL	8ggL)	.
16a	.	.
16e	(16ggL	.
16aJJ	16aaJJ	.
16dLL	8ff#L)	.
16a	.	.
16d	(16ff#L	.
16aJJ	16ggJJ	.
=28	=28	=28
16c#LL	8eeL)	.
16a	.	.
16c#	(16eeL	.
16aJJ	16ff#JJ	.
16BLL	8ddL)	.
16a	.	.
16B	(16ddL	.
16aJJ	16eeJJ	.
16ALL	8cc#L)	.
16a	.	.
16A	(16cc#L	.
16aJJ	16eeJJ	.
=29	=29	=29
16BLL	16ddLL	.
16a	16ee	.
16B	16ff#	.
16aJJ	16ddJJ	.
16c#LL	16eeLL	.
16a	16ff#	.
16c#	16gg	.
16aJJ	16eeJJ	.
16dLL	16ff#LL	.
16a	16gg	.
16d	16aa	.
16aJJ	16ff#JJ	.
=30	=30	=30
16eLL	16aaLL	.
16a	16gg	.
16e	16aa	.
16aJJ	16ggJJ	.
16c#LL	4ee')	.
16a	.	.
16c#	.	.
16aJJ)	.	.
*clefF4	*	*
(16ALL	4r	f
16G	.	.
16F#	.	.
16EJJ	.	.
=31	=31	=31
4D)	8r	.
.	8dd'L	p
4r	8cc#'	.
.	8dd'J	.
(8c#L	8ee (8ggL	f
8dJ)	8dd 8ff#J)	.
=32	=32	=32
4D	8r	.
.	8dd'L	p
4r	8cc#'	.
.	8dd'J	.
(8c#L	8gg (8bbL	f
8dJ)	8ff# 8aaJ)	.
=33	=33	=33
4D	8r	.
.	8dd'L	p
4r	8cc#'	.
.	8dd'J	.
*clefG2	*	*
(8g#L	8bb (8dddL	f
8aJ)	8aa 8ccc#J)	.
=34	=34	=34
(8f#L	8aa (8cccnL	.
8gnJ)	8gg 8bbJ)	.
(8dL	8ffn (8gg#L	.
8c#J)	8ee 8aaJ)	.
(8cnL	8ee- (8ff#L	.
8BJ)	8dd 8ggnJ)	.
=35	=35	=35
4A	(16ggLL	.
.	16een	.
.	16cc#	.
.	16aJJ	.
4r	16g#LL	.
.	16a	.
.	16b	.
.	16aJJ	.
*clefF4	*	*
4G 4A 4e	16ggnLL	.
.	16ee	.
.	16cc#	.
.	16aJJ	.
=36	=36	=36
4F# 4A 4d	16aaLL	.
.	16ff#	.
.	16dd	.
.	16aJJ	.
4r	16g#LL	.
.	16a	.
.	16b	.
.	16aJJ	.
4F# 4A 4d	16aaLL	.
.	16ff#	.
.	16dd	.
.	16aJJ)	.
=37	=37	=37
*^	*	*
4G\ 4B\ 4e\	4ryy	(16bLL	.
.	.	16ee	.
.	.	16gg	.
.	.	16bbJJ)	.
*clefG2	*	*	*
4d 4f#	2A	(16bbLL	.
.	.	16aa	.
.	.	16gg	.
.	.	16ff#JJ)	.
4e 4g	.	(16ff#LL	.
.	.	16ee	.
.	.	16dd	.
.	.	16cc#JJ)	.
=38	=38	=38	=38
4f#	4d	8r	.
.	.	8dd'L	p
4r	2ryy	8cc#'	.
.	.	8dd'J	.
(8g#L	.	8bb (8dddL	f
8aJ)	.	8aa 8ccc#J)	.
*v	*v	*	*
=39	=39	=39
(8f#L	8aa (8cccnL	.
8gnJ)	8gg 8bbJ)	.
(8dL	8ffn (8gg#L	.
8c#J)	8ee 8aaJ)	.
(8cnL	8ee- (8ff#L	.
8BJ)	8dd 8ggnJ)	.
=40	=40	=40
4A	(16ggLL	.
.	16een	.
.	16cc#	.
.	16aJJ	.
*clefF4	*	*
8r	16g#LL	.
.	16a	.
8A 8c# 8eL	16b	.
.	16aJJ	.
8G 8A 8e	16ggnLL	.
.	16ee	.
8G 8A 8eJ	16cc#	.
.	16aJJ	.
=41	=41	=41
4F# 4A 4d	16aaLL	.
.	16ff#	.
.	16dd	.
.	16aJJ	.
8r	16g#LL	.
.	16a	.
8F# 8A 8dL	16b	.
.	16aJJ	.
8F# 8A 8d	16aaLL	.
.	16ff#	.
8F# 8A 8dJ	16dd	.
.	16aJJ)	.
=42	=42	=42
*^	*	*
4G\ 4B\ 4e\	4ryy	(16bLL	.
.	.	16ee	.
.	.	16gg	.
.	.	16bbJJ)	.
*clefG2	*	*	*
4d 4f#	2A	(16bbLL	.
.	.	16aa	.
.	.	16gg	.
.	.	16ff#JJ)	.
4e 4g	.	(16ff#LL	.
.	.	16ee	.
.	.	16dd	.
.	.	16cc#JJ	.
=43	=43	=43	=43
4f# 4d	4d	8dd'L)	.
.	.	(16ddL	.
.	.	16ff#JJ	.
8r	8ryy	16eeLL	.
.	.	16gg	.
*clefF4	*	*	*
(16ALL\	4.ryy	16ff#	.
16c#JJ\	.	16aaJJ)	.
16BLL\	.	(4ggT	.
16d\	.	.	.
16c#\	.	.	.
16eJJ\	.	.	.
.	.	16qff#/LL	.
.	.	16qgg/JJ	.
*v	*v	*	*
=44	=44	=44
4d)	8ff#L)	.
.	(16ddL	.
.	16ff#JJ	.
8r	16eeLL	.
.	16gg	.
(16ALL	16ff#	.
16c#JJ	16aaJJ)	.
16BLL	(4ggT	.
16d	.	.
16c#	.	.
16eJJ)	.	.
.	16ff#qLL/	.
.	16ggqJJ/	.
=45	=45	=45
*	*^	*
(4d	8r	4ff#)	p
.	(4bb	.	.
4c#	.	4ee	.
.	4aa	.	.
4B	.	4dd	.
.	[8gg	.	.
=46	=46	=46	=46
4A	8gg]	4cc#	.
.	4ff#	.	.
4G	.	4b	.
.	4ee	.	.
4F#)	.	4a	.
.	8dd)	.	.
=47	=47	=47	=47
4G	(8dd#L	4b	.
.	8eeJ)	.	.
4E	8r	8r	.
.	8ggL	8bL	.
4A	8ee	8g	.
.	8cc#J	8eJ	.
=48	=48	=48	=48
(4d	16r	4ff#	f
.	(16gg#LL	.	.
.	16aa#	.	.
.	16bbJJ)	.	.
4c#	16r	4ee	.
.	(16bbLL	.	.
.	16gg#	.	.
.	16aanJJ)	.	.
4B	16r	4dd)	.
.	(16eeLL	.	.
.	16ff#	.	.
.	16ggnJJ)	.	.
=49	=49	=49	=49
4A	16r	4cc#	.
.	(16ggLL	.	.
.	16ee#	.	.
.	16ff#JJ)	.	.
4G	16r	4b)	.
.	(16cc#LL	.	.
.	16dd#	.	.
.	16eenJJ)	.	.
4F#)	16r	4a	.
.	(16eeLL	.	.
.	16cc#	.	.
.	16ddnJJ)	.	.
*	*v	*v	*
=50	=50	=50
4G	(16eeLL	.
.	16gg	.
.	16bb	.
.	16ggJJ	.
4A	16ff#LL	.
.	16aa	.
.	16dd	.
.	16ff#JJ	.
4AA	16eeLL	.
.	16gg	.
.	16cc#	.
.	16eeJJ	.
=51	=51	=51
(16DLL	4dd)	.
16d	.	.
16c#	.	.
16dJJ	.	.
16DLL	8r	.
16d	.	.
16c#	8f# 8a 8ccnL	.
16dJJ	.	.
16DLL	8d 8g 8b	.
16d	.	.
16c#	8e 8g 8cc#J	.
16dJJ	.	.
=52	=52	=52
16DLL	4f# 4a 4dd	.
16d	.	.
16c#	.	.
16dJJ	.	.
16DLL	8r	.
16d	.	.
16c#	8ff# 8aa 8cccnL	.
16dJJ	.	.
16DLL	8dd 8gg 8bb	.
16d	.	.
16c#	8ee 8gg 8ccc#J	.
16dJJ	.	.
=53	=53	=53
4D)	4ff# 4aa 4ddd	.
4r	4r	.
=:|!	=:|!	=:|!
*>B	*>B	*>B
4r	4r	.
*clefG2	*	*
=54	=54	=54
.	(32gg#qq/	.
4r	4aa)	p
4d 4f#	4r	.
4d 4f#	4r	.
=55	=55	=55
4r	(16ggnLL	.
.	16ff#	.
.	16ee	.
.	16ddJJ	.
4e 4g	4cc#)	.
4e 4g	4r	.
=56	=56	=56
!	!LO:S:a	!
.	(32ddqq/	.
4r	4ddd)	.
4f# 4a	4r	.
4f# 4a	4r	.
=57	=57	=57
4r	([4ee	.
(4g 4b	16eeLL]	.
.	16ff#	.
.	16gg	.
.	16ff#JJ	.
4a/) 4cc#/	16aaLL	.
.	16gg	.
.	16ff#	.
.	16eeJJ	.
=58	=58	=58
4r	16gg#LL	.
.	16aa	.
.	16gg#	.
.	16aaJJ)	.
*clefF4	*	*
.	(32bbqq/	.
4D 4F#	4aa)	.
4D 4F#	4r	.
=59	=59	=59
4r	(16aaLL	.
.	16ggn	.
.	16ff#	.
.	16eeJJ	.
4E 4G	4dd	.
4E 4G	8cc#)	.
.	8r	.
=60	=60	=60
4r	(16ccc#LL	.
.	16ddd	.
.	16ccc#	.
.	16dddJJ	.
.	32eeeqq/	.
4F# 4A	4ddd)	.
4F# 4A	4r	.
=61	=61	=61
.	(32dddqq/	.
4r	[4ee)	.
4G (4B	(16eeLL]	.
.	16dd#	.
.	16ee	.
.	16ff#JJ	.
4A 4c#)	16aaLL	.
.	16gg	.
.	16ff#	.
.	16eeJJ	.
=62	=62	=62
8D'L	4ddn)	f
8d'	.	.
8d'	8r	p
8d'	(24eeLL	.
.	24dd	.
.	24cc#JJ	.
8d'	8dd'L)	.
8d'J	8dd'J	.
=63	=63	=63
8d'L	8gg' 8bb'L	.
8d'	8ff#' 8aa'	.
8d'	8ee' 8gg'	.
8d'	8dd' 8ff#'	.
8d'	8ccn' 8ee'	.
8d'J	8b' 8dd'J	.
=64	=64	=64
8D'L	4a 4cc	f
8d'	.	.
8d'	8r	p
8d'	(24ddLL	.
.	24cc	.
.	24bJJ	.
8d'	8cc'L)	.
8d'J	8cc'J	.
=65	=65	=65
8d'L	8ff#' 8aa'L	.
8d'	8ee' 8gg'	.
8d'	8dd' 8ff#'	.
8d'	8cc' 8ee'	.
8d'	8b' 8dd'	.
8d'J	8a 8ccJ	.
=66	=66	=66
8DL	4g 4b	f
8d'	.	.
8d'	8r	p
8d'	(24ccLL	.
.	24b	.
.	24aJJ	.
8d'	8b'L)	.
8d'J	8b'J	.
=67	=67	=67
8d'L	8b' 8gg'L	.
8d'	8a' 8ff#'	.
8d'	8cc' 8ee'	.
8d'	8b' 8dd'	.
8d'	8a' 8cc'	.
8d'J	8g' 8b'J	.
=68	=68	=68
4d	4f# 4a	f
8r	8r	.
16D'LL	16d'LL	.
16E'JJ	16e'JJ	.
8F#'L	8f#'L	.
8G'J	8g'J	.
=69	=69	=69
4A	4a	.
8r	8r	.
16F#'LL	16f#'LL	.
16G'JJ	16g'JJ	.
8A'L	8a'L	.
8B'J	8b'J	.
=70	=70	=70
4c	4cc	.
4r	8r	.
.	(16cccLL	p
.	16bbJJ	.
4r	8aaL)	.
.	(16aaL	.
.	16ggJJ	.
=71	=71	=71
2.r	8ff#L)	.
.	(16ff#L	.
.	16eeJJ	.
.	8ddL)	.
.	(16ddL	.
.	16cc#JJ)	.
.	(8.ddL	.
.	16bJk	.
=72	=72	=72
(8GL	4dd)	.
8B	.	.
8d	4r	.
8B	.	.
8d	(4g	.
8BJ	.	.
=73	=73	=73
8AL	4f#)	.
8c	.	.
8d	4r	.
8c	.	.
8d	(8.aaL	.
8cJ	.	.
.	16ff#Jk	.
=74	=74	=74
8F#L	4aa)	.
8A	.	.
8d	4r	.
8A	.	.
8d	(4cc	.
8AJ)	.	.
=75	=75	=75
8G'	4b)	f
8B (8dL	.	.
8A 8c	4r	.
8G# 8BJ)	.	.
4r	(8.eeL	p
.	16ccJk	.
=76	=76	=76
(8AL	4ee)	.
8c	.	.
8e	4r	.
8c	.	.
8e	(4a	.
8cJ	.	.
=77	=77	=77
8BL	4g#)	.
8d	.	.
8e	4r	.
8d	.	.
8e	(8.bbL	.
8dJ	.	.
.	16gg#Jk	.
=78	=78	=78
8G#L	4bb)	.
8B	.	.
8e	4r	.
8B	.	.
8e	(4dd	.
8BJ	.	.
=79	=79	=79
8A')	4cc)	.
8c (8eL	.	f
8B 8d	4r	.
8A 8cJ)	.	.
4r	(8.cccL	p
.	16aaJk)	.
*clefG2	*	*
=80	=80	=80
(8AL	(16ggLK	.
.	8.ffnJ)	.
8c	.	.
8fn	4ff	.
8A	.	.
8B	4ff	.
8gJ	.	.
=81	=81	=81
8cL	(4dd#	.
8g	.	.
8cc	4ee)	.
8g	.	.
8e	(8.cccL	.
8gJ	.	.
.	16ggJk	.
=82	=82	=82
8cL	4ee)	.
8e	.	.
8g	(16eeLL	.
.	16gg	.
8e	16ff#X	.
.	16ggJJ	.
8c	16aaLL	.
.	16gg	.
8eJ)	16ff#	.
.	16eeJJ)	.
=83	=83	=83
.	(32cc#qq/	.
4B 4g	4dd)	.
*clefF4	*	*
8r	8r	.
8GGG 8GGL	(16GLL	p
.	16BJJ	.
8AAA 8AA	16ALL	.
.	16cn	.
8BBB 8BBJ	16B	.
.	16dJJ	.
=84	=84	=84
4CC 4C	4c)	.
8r	8r	.
8AAA 8AAL	(16ALL	.
.	16cJJ	.
8BBB 8BB	16BLL	.
.	16d	.
8CC 8CJ	16c	.
.	16eJJ	.
=85	=85	=85
4DD 4D	4d)	.
8r	8r	.
!	!LO:S:a	!
8BBB 8BBL	(16BLL	.
.	16dJJ	.
8CC 8C	16cLL	.
.	16e	.
8DD 8DJ	16d	.
.	16fnJJ	.
=86	=86	=86
8EE 8EL	16eLL	.
.	16fn	.
8DD 8D	16d	.
.	16eJJ	.
8CC 8C	16cLL	.
.	16e	.
8DD 8D	16d	.
.	16fJJ	.
8EE 8E	16eLL	.
.	16g	.
8FF# 8F#J	16f#	.
.	16aJJ	.
=87	=87	=87
8GG 8GL	16gLL	.
.	16a	.
8FF# 8F#	16f#	.
.	16gJJ	.
8EE 8E	16eLL	.
.	16g	.
8FF# 8F#	16f#	.
.	16aJJ	.
8GG 8G	16gLL	.
.	16b	.
8AA 8AJ	16a	.
.	16ccJJ	.
=88	=88	=88
8BB 8BL	16bLL	.
.	16cc	.
8AA 8A	16a	.
.	16bJJ	.
8GG 8G	16gLL	.
.	16b	.
8AA 8A	16a	.
.	16ccJJ	.
8BB 8B	16bLL	.
.	16dd	.
8C# 8c#J	16cc#	.
.	16eeJJ	.
=89	=89	=89
4D 4d	4dd)	.
4DD 4D	4dT	.
.	16c#qLL	.
.	16dqJJ	.
4r	4r	.
=90	=90	=90
(8BL	8r	.
8d	(4dd	p
8A	.	.
8d	4ccn	.
8G	.	.
8dJ	[8b	.
=91	=91	=91
8F#L	8b]	.
8d	4a	.
8E	.	.
8d	4g	.
8D	.	.
8dJ	8f#)	.
=92	=92	=92
8EL	(16aLK	.
.	8.gJ)	.
8d	.	.
8F#	(16bLK	.
.	8.aJ)	.
8d	.	.
8G	(16ccLK	.
.	8.bJ)	.
8dJ	.	.
=93	=93	=93
8AL	(8.ddL	.
8d	.	.
.	16ccJk)	.
8F#	4a	.
8d	.	.
8D	4r	.
8dJ)	.	.
*clefG2	*	*
=94	=94	=94
(16bLL	8r	.
16dd	.	.
16b	(16dddLL	.
16ddJJ	16eeeJJ	.
16aLL	8cccL)	.
16dd	.	.
16a	(16cccL	.
16ddJJ	16dddJJ	.
16gLL	8bbL)	.
16dd	.	.
16g	(16bbL	.
16ddJJ	16cccJJ	.
=95	=95	=95
16f#LL	8aaL)	.
16dd	.	.
16f#	(16aaL	.
16ddJJ	16bbJJ	.
16eLL	8ggL)	.
16dd	.	.
16e	(16ggL	.
16ddJJ	16aaJJ	.
16dLL	8ff#L)	.
16dd	.	.
16d	(16ff#L	.
16ddJJ	16aaJJ	.
=96	=96	=96
16eLL	16ggLL	.
16dd	16aa	.
16e	16bb	.
16ddJJ	16ggJJ	.
16f#LL	16aaLL	.
16dd	16bb	.
16f#	16ccc	.
16ddJJ	16aaJJ	.
16gLL	16bbLL	.
16dd	16ccc	.
16g	16ddd	.
16ddJJ	16bbJJ	.
=97	=97	=97
16aLL	16dddLL	.
16dd	16ccc	.
16a	16ddd	.
16ddJJ	16cccJJ	.
16f#LL	4aa')	.
16dd	.	.
16f#	.	.
16ddJJ)	.	.
*clefF4	*	*
(16dLL	4r	f
16c	.	.
16B	.	.
16AJJ)	.	.
=98	=98	=98
4GG 4G	8r	p
.	8g'L	.
4r	8f#'	.
.	8g'J	.
(8F#L	(8a 8ccL	f
8GJ)	8g) 8bJ	.
=99	=99	=99
4GG	8r	p
.	8g'L	.
4r	8f#'	.
.	8g'J	.
(8F#L	8cc (8eeL	f
8GJ)	8b 8ddJ)	.
=100	=100	=100
4GG	8r	p
.	8g'L	.
4r	8f#'	.
.	8gJ	.
(8c#L	8ee (8ggL	f
8dJ)	8dd 8ff#J)	.
=101	=101	=101
(8BL	8dd (8ffnL	.
8cnJ)	8cc 8eeJ)	.
(8GL	8b- (8cc#L	.
8F#J)	8a 8ddJ)	.
(8FnL	(8a- 8bnL	.
8EJ)	8g) 8ccnJ	.
=102	=102	=102
4D	(16ccLL	.
.	16an	.
.	16f#X	.
.	16dJJ	.
4r	16c#LL	.
.	16d	.
.	16e	.
.	16dJJ	.
4C 4D 4A	16ccnLL	.
.	16a	.
.	16f#	.
.	16dJJ	.
=103	=103	=103
4BB 4D 4G	16ddLL	.
.	16b	.
.	16g	.
.	16dJJ	.
4r	16c#LL	.
.	16d	.
.	16e	.
.	16dJJ	.
4BB 4D 4G	16ddLL	.
.	16b	.
.	16g	.
.	16dJJ)	.
=104	=104	=104
*^	*	*
4ryy	4C 4E 4A	(16eLL	.
.	.	16a	.
.	.	16cc	.
.	.	16eeJJ)	.
4G 4B	2D	(16eeLL	.
.	.	16dd	.
.	.	16cc	.
.	.	16bJJ)	.
4A 4c	.	(16bLL	.
.	.	16a	.
.	.	16g	.
.	.	16f#JJ)	.
=105	=105	=105	=105
4B	4G	8r	.
.	.	8g'L	p
4r	2ryy	8f#'	.
.	.	8g'J	.
(8c#L\	.	8ee (8ggL	f
8dJ)\	.	8dd 8ff#J)	.
*v	*v	*	*
=106	=106	=106
(8BL	8dd (8ffnL	.
8cnJ)	8cc 8eeJ)	.
(8GL	8b- (8cc#L	.
8F#J)	8a 8ddJ)	.
(8FnL	(8a- 8bnL	.
8EJ)	8g) 8ccnJ	.
=107	=107	=107
4d	(16cccLL	.
.	16aan	.
.	16ff#X	.
.	16ddJJ	.
*clefG2	*	*
8r	16cc#LL	.
.	16dd	.
8d 8f#X 8aL	16ee	.
.	16ddJJ	.
8c 8d 8a	16cccnLL	.
.	16aa	.
8c 8d 8aJ	16ff#	.
.	16ddJJ	.
=108	=108	=108
4B 4d 4g	16dddLL	.
.	16bb	.
.	16gg	.
.	16ddJJ	.
8r	16cc#LL	.
.	16dd	.
8B 8d 8gL	16ee	.
.	16ddJJ	.
8B 8d 8g	16dddLL	.
.	16bb	.
8B 8d 8gJ	16gg	.
.	16ddJJ)	.
=109	=109	=109
*^	*	*
4c 4e 4a	4ryy	(16eeLL	.
.	.	16aa	.
.	.	16ccc	.
.	.	16eeeJJ)	.
4g 4b	2d	(16eeeLL	.
.	.	16ddd	.
.	.	16ccc	.
.	.	16bbJJ)	.
4a 4cc	.	(16bbLL	.
.	.	16aa	.
.	.	16gg	.
.	.	16ff#JJ	.
=110	=110	=110	=110
4b	4g	8gg'L)	.
.	.	(16ggL	.
.	.	16bbJJ	.
8r	2ryy	16aaLL	.
.	.	16ccc	.
(16dLL	.	16bb	.
16f#JJ	.	16dddJJ)	.
16eLL	.	(4cccT	.
16g	.	.	.
16f#	.	.	.
16aJJ	.	.	.
*v	*v	*	*
.	16bbqLL/	.
.	16cccqJJ/	.
=111	=111	=111
4g)	8bb')	.
.	(16gLL	.
.	16bJJ	.
8r	16aLL	.
.	16cc	.
*clefF4	*	*
(16DLL	16b	.
16F#JJ	16ddJJ)	.
16ELL	(4ccT	.
16G	.	.
16F#	.	.
16AJJ	.	.
.	16bqLL/	.
.	16ccqJJ)/	.
=112	=112	=112
*	*^	*
4G	8r	4b	p
.	(4ee	.	.
4F#	.	4a	.
.	4dd	.	.
4E	.	4g	.
.	[8cc	.	.
=113	=113	=113	=113
4D	8cc]	4f#	.
.	4b	.	.
4C	.	4e	.
.	4a	.	.
4BB)	.	4d	.
.	8g)	.	.
=114	=114	=114	=114
4C	(8g#L	4e	.
.	8aJ)	.	.
4AA	8r	8ryy	.
.	8ccL	8aL	.
4D	8b	8gn	.
.	8aJ	8f#J	.
=115	=115	=115	=115
(4g	16r	4bb	f
.	(16ccc#LL	.	.
.	16ddd#	.	.
.	16eeeJJ)	.	.
4f#	16r	4aa	.
.	(16eeeLL	.	.
.	16ccc#	.	.
.	16dddnJJ)	.	.
4e	16r	4gg)	.
.	(16aaLL	.	.
.	16bb	.	.
.	16cccnJJ)	.	.
=116	=116	=116	=116
4d	16r	4ff#	.
.	(16cccLL	.	.
.	16aa#	.	.
.	16bbJJ)	.	.
4c	16r	4ee	.
.	(16ff#LL	.	.
.	16gg#	.	.
.	16aanJJ)	.	.
4B)	16r	4dd	.
.	(16aaLL	.	.
.	16ff#	.	.
.	16ggnJJ)	.	.
*	*v	*v	*
=117	=117	=117
4c	(16eeLL	.
.	16gg	.
.	16ee	.
.	16ccJJ	.
4d	16bLL	.
.	16dd	.
.	16g	.
.	16bJJ	.
4D	16aLL	.
.	16cc	.
.	16f#	.
.	16aJJ	.
=118	=118	=118
(16GGLL/	4g)	.
16G/	.	.
16F#/	.	.
16GJJ/	.	.
16GGLL/	8r	.
16G/	.	.
16F#/	8d 8fn 8bL	.
16GJJ/	.	.
16GGLL/	8e 8g 8cc	.
16G/	.	.
16F#/	8f# 8a 8ccJ	.
16GJJ/	.	.
=119	=119	=119
16GGLL/	4g 4b	.
16G/	.	.
16F#/	.	.
16GJJ/	.	.
16GGLL/	8r	.
16G/	.	.
16F#/	8b 8dd 8ffnL	.
16GJJ/	.	.
16GGLL/	8cc 8ee	.
16G/	.	.
16F#/	8a 8cc 8ff#J	.
16GJJ/	.	.
=120	=120	=120
4GG)	4b 4dd 4gg	.
4r	4r	.
==	==	==
*-	*-	*-
!!!SMS: Alte Mozart-Ausgabe, Band 20, Breitkopf &amp; H&auml;rtel 1877-1883.
!!!ONB: Stich und Druck von Breitkopf &amp; H&auml;rtel in Leipzig
!!!ONB: Ausgegeben 1878
!!!ENC: Craig Stuart Sapp
!!!END: 2009/10/05/
!!!EEV: 2016/12/28/
!!!title: @{OTL}, K 283 (189h), @{OMV}
!!!hum2abc: --no-tempo -s 0.65 --spacing 2.0 -p "%gracespace  0 6.0 12.0"
!!!ONB: Not proofread
